X: 38649
T: Stormy Saturday
R: reel
M: 4/4
K: Gmajor
GE|DEGA BG G2|cABG AGEG|DEGA BGGA|BdAB G2:|
g3 d edBA|BdAB GE E2|g2 gd edBA|BdAB G4|
g3 d edBA|BdAB GE E2|DEGA BGGA|BdAB G4||

